X: 9044
T: Da Fashion O' Da Delting Lasses
R: reel
M: 4/4
K: Dmajor
DFAF dFAF|GBAF GEE2|(DF)AF dFAF|GBAG FD D2:|
d2ef gefd|fgaf gfe(c|d2)ef gefd|ABAG FD D2|
d2ef gefd|fgaf gfe(c|d2)ef aefd|ABAG FD D2||

